components/icon/svg/24/journey_2nd-class.svg

<?xml version="1.0" encoding="UTF-8"?>
<svg width="24px" height="24px" viewBox="0 0 24 24" version="1.1" xmlns="http://www.w3.org/2000/svg" xmlns:xlink="http://www.w3.org/1999/xlink">
    <!-- Generator: Sketch 64 (93537) - https://sketch.com -->
    <title>ic-db_journey_2nd-class_24</title>
    <desc>Created with Sketch.</desc>
    <g id="Symbols" stroke="none" stroke-width="1" fill="none" fill-rule="evenodd">
        <g id="24dp-Icon/Journey/2nd-Class" fill="#282D37">
            <path d="M6,17.9977 C6,17.6752 6.129,17.3848 6.3871,17.1913 L7.0322,16.7074 C10.5806,14.0945 12.6829,11.8125 12.6774,9.5161 C12.6774,7.3548 11.0645,7.0323 10.0967,7.0323 C9.3548,7.0323 8.5483,7.2258 7.8387,7.4839 C7.3548,7.6774 7.2258,7.7419 7.0967,7.7419 C6.5806,7.7419 6.0967,7.3226 6.0967,6.7097 C6.0967,6.3548 6.2903,6 6.6451,5.8065 C7.7096,5.2903 8.9354,5 10.0967,5 C12.9032,5 14.6774,6.7742 14.6774,9.5161 C14.6774,12.3548 12.5483,14.8042 9.9032,16.9977 L14.5806,16.9977 C15.1613,16.9977 15.6129,17.4494 15.6129,17.9977 C15.6129,18.5461 15.1613,18.9977 14.5806,18.9977 L7,18.9977 C6.4516,18.9977 6,18.5784 6,17.9977 Z M18,17.9977 C18,17.4521857 18.4545796,16.9977 19,16.9977 C19.5455143,16.9977 20,17.4521857 20,17.9977 C20,18.5431204 19.5455143,18.9977 19,18.9977 C18.4545796,18.9977 18,18.5431204 18,17.9977 Z" id="🎨-Color"></path>
        </g>
    </g>
</svg>

<svg width="24" height="24" xmlns="http://www.w3.org/2000/svg"><path d="M6 17.998c0-.323.129-.613.387-.807l.645-.484c3.549-2.613 5.65-4.895 5.645-7.19 0-2.162-1.612-2.485-2.58-2.485-.742 0-1.549.194-2.258.452-.484.193-.613.258-.742.258-.516 0-1-.42-1-1.032 0-.355.193-.71.548-.904A8.08 8.08 0 0110.097 5c2.806 0 4.58 1.774 4.58 4.516 0 2.839-2.129 5.288-4.774 7.482h4.678c.58 0 1.032.451 1.032 1 0 .548-.452 1-1.032 1H7c-.548 0-1-.42-1-1zm12 0c0-.546.455-1 1-1 .546 0 1 .454 1 1 0 .545-.454 1-1 1-.545 0-1-.455-1-1z" fill="#282D37" fill-rule="evenodd"/></svg>
